!!!COM: John Bull
!!!OPR: Telluris ingens conditor
!!!OTL: [verse 6: Aurora lucis rutilat]
!!!YOR: Musica Britannica, Vol. 14; 2nd rev. ed.;
!!!YOR: John Bull, Keyboard Music 1.
!!!YOR: London
!!!YOR: John Steele and Francis Cameron (editors)
!!!YOR: p.136
!!!YOO: Stainer and Bell
!!!YOY: 1967
**kern	**kern	**kern	**kern	**kern
*guida	*CF	*freeV	*conseq	*CFbackground
*k[b-]	*k[b-]	*k[b-]	*k[b-]	*k[b-]
*F:	*F:	*F:	*F:	*F:
*M4/4	*M4/4	*M4/4	*M4/4	*M4/4
=1-	=1-	=1-	=1-	=1-
4r	2F	4r	1r	2F
4AA	.	4c	.	.
4.D	2F	4.f	.	2F
8C	.	8e	.	.
=2	=2	=2	=2	=2
4BB-	2G	4d	1r	2G
4BB-	.	4d	.	.
2AA	4A	4.c	.	2A
.	4A	.	.	.
.	.	16d	.	.
.	.	16e	.	.
=3	=3	=3	=3	=3
1r	4.d	8.f	4r	2B-
.	.	16g	.	.
.	.	4a	4a	.
.	8c	.	.	.
.	4B-	8g	4.dd	2A
.	.	8f	.	.
.	4A	[4f	.	.
.	.	.	8cc	.
=4	=4	=4	=4	=4
2r	2G	4f]	4b-	2G
.	.	4e	4b-	.
4r	2F	4.f	2a	2F
4AA	.	.	.	.
.	.	8c	.	.
=5	=5	=5	=5	=5
4.D	2B-	8d	1r	2B-
.	.	8e	.	.
.	.	8f	.	.
8C	.	8e	.	.
4BB-	2B-	4g	.	2B-
4AA	.	[4f	.	.
=6	=6	=6	=6	=6
2GG	2B-	4f]	2r	2B-
.	.	4e	.	.
2FF	2A	4f	4r	2A
.	.	4c	4a	.
=7	=7	=7	=7	=7
1r	4r	4.f	4.dd	2F
.	4F	.	.	.
.	.	8e	8cc	.
.	4G	4d	4b-	2G
.	4A	[4f	4a	.
=8	=8	=8	=8	=8
1r	4B-	4f]	2g	2B-
.	4G	4e	.	.
.	4A	4c	2f	2B-
.	4B-	4d	.	.
=9	=9	=9	=9	=9
4r	2c	4.e	1r	2c
4C	.	.	.	.
.	.	8c	.	.
4.G	[2B-	8d	.	2B-
.	.	8c	.	.
.	.	8d	.	.
8G	.	8e	.	.
=10	=10	=10	=10	=10
4G	4B-]	8d	2r	2A
.	.	8e	.	.
4F	4A	8f	.	.
.	.	8d	.	.
4E	[2G	4.e	4r	2G
4C	.	.	4cc	.
.	.	8d	.	.
=11	=11	=11	=11	=11
4E	4G]	2c	4.gg	2A
4F	4A	.	.	.
.	.	.	8gg	.
2D	8B-	4r	4gg	2B-
.	4c	.	.	.
.	.	4d	4ff	.
.	8Bn	.	.	.
=12	=12	=12	=12	=12
2C	2c	4.g	4ee	2c
.	.	.	4cc	.
.	.	8g	.	.
2r	4r	4g	4ee	2F
.	4F	[4a	4ff	.
=13	=13	=13	=13	=13
2r	4.B-	4a]	2dd	2B-
.	.	4.g	.	.
.	8B-	.	.	.
4r	4A	.	2cc	2A
.	.	8f	.	.
4FF	4A	[4f	.	.
=14	=14	=14	=14	=14
4.C	2G	4f]	1r	2G
.	.	8e	.	.
8C	.	8d	.	.
4C	2G	8e	.	2G
.	.	8f	.	.
4BB-	.	[4g	.	.
=15	=15	=15	=15	=15
4AA	2A	8g]	2r	2A
.	.	8f	.	.
8GG	.	4f	.	.
8FF	.	.	.	.
8GG	2r	4e	4r	2G
8AA	.	.	.	.
8BB-	.	[4d	4g	.
8GG	.	.	.	.
=16	=16	=16	=16	=16
2AA	2A	8d]	4.cc	2A
.	.	8c	.	.
.	.	4f	.	.
.	.	.	8cc	.
2r	2G	4e	4cc	2G
.	.	[4d	4b-	.
=17	=17	=17	=17	=17
2r	4A	8d]	4a	2A
.	.	8c	.	.
.	4B-	[4d	8g	.
.	.	.	8f	.
4r	2G	8d]	8g	2G
.	.	8c	8a	.
4C	.	8d	8b-	.
.	.	8e	8g	.
=18	=18	=18	=18	=18
4.F	2F	4f	2a	2F
.	.	4c	.	.
8E	.	.	.	.
8D	[2F	4d	2r	[2F
8C	.	.	.	.
8BB-	.	4c	.	.
8AA	.	.	.	.
=19	=19	=19	=19	=19
4BB-	1F_	4.d	4r	1F_
4AA	.	.	4cc	.
.	.	8c	.	.
4.D	.	4B-	4.ff	.
.	.	4A	.	.
8C	.	.	8ee	.
=20	=20	=20	=20	=20
4BB-	1F_	4B-	8dd	1F_
.	.	.	8cc	.
4F	.	4c	8b-	.
.	.	.	8a	.
4D	.	4r	4b-	.
4F	.	4c	4a	.
=21	=21	=21	=21	=21
4BB-	1F_	4.f	4.dd	1F_
4AA	.	.	.	.
.	.	8e	8cc	.
4BB-	.	8d	4b-	.
.	.	8c	.	.
4FF	.	8B-	4a	.
.	.	8A	.	.
=22	=22	=22	=22	=22
2BB-	1F_	2B-	4f	1F_
.	.	.	4g	.
2FF	.	2A	4a	.
.	.	.	4f	.
=23	=23	=23	=23	=23
1FF;	1F;]	1A;	1f;	1F;]
==	==	==	==	==
*-	*-	*-	*-	*-
!!!COA: Thomas Tallis
!!!CDT: ~1562-1628/3/12/|13
!!!CNT: English
!!!YEP: David Huron and Denis Collins
!!!YEN: Canada
!!!AIN: cemba; clavi; klav; organ
!!!AGN: keyboard
!!!AST: polyphony
!!!RDT: 1995 April 17
!!!YED: 1995 August 31
!!!AFR: cantus firmus canon
!!!AMT: simple quadruple
!!!EEV: 1.0
